!!!!SEGMENT: pl-wtm--r-2290_troschel-wilhelm--polka.krn
!!!cenid: 18xx:2252
!!!COM: Troschel, Wilhelm
!!!COM-rismid: pe30024099
!!!CDT: 1823/08/23-1887/03/02
!!!CNT: Polish
!!!OTL: Polka
!!!PDT: 1846
!!!AGN: Secular; Polka
!!!SMS-siglum: PL-Wtm
!!!SMS-shelfmark: R 2290
!!!SMS-shelfwork: W
!!!SMS-variant:
!!!SMS-altvar:
!!!NIFC-rismid: 1001114014
!!!system-decoration: {(s1,s2)}{(s3,s4)}
**kern	**fing	**kern	**fing	**dynam	**kern	**fing	**kern	**fing	**dynam
*part2	*part2	*part2	*part2	*part2	*part1	*part1	*part1	*part1	*part1
*staff4	*staff4	*staff3	*staff3	*	*staff2	*staff2	*staff1	*staff1	*
*Iempty	*	*Iempty	*	*	*Iempty	*	*Iempty	*	*
*	*	*I"Secondo.	*	*	*	*	*I"Primo	*	*
*	*	*I'Pf II	*	*	*	*	*I'Pf I	*	*
*clefF4	*	*clefF4	*	*	*clefG2	*	*clefG2	*	*
*k[f#c#g#d#]	*	*k[f#c#g#d#]	*	*	*k[f#c#g#d#]	*	*k[f#c#g#d#]	*	*
*A:	*	*A:	*	*	*A:	*	*A:	*	*
*M2/4	*	*M2/4	*	*	*M2/4	*	*M2/4	*	*
*>[A,B,B,C,C1,C,C2,D,D,A,B,C,C2]	*	*>[A,B,B,C,C1,C,C2,D,D,A,B,C,C2]	*	*	*>[A,B,B,C,C1,C,C2,D,D,A,B,C,C2]	*	*>[A,B,B,C,C1,C,C2,D,D,A,B,C,C2]	*	*
=1	=1	=1	=1	=1	=1	=1	=1	=1	=1
*>A	*	*>A	*	*	*>A	*	*>A	*	*
!!LO:TX:a:t=P:problem:all\right:global
!	!	!LO:TX:a:Bi:t=Polka.	!	!	!	!	!LO:TX:a:Bi:t=Polka	!	!
!	!	!	!	!	!LO:TX:a:Bi:t=2.	!	!LO:TX:a:Bi:t=2.	!	!
!	!	!	!	!	!LO:TX:a:Bi:t=[segno]:problem:znak segno nad metrum	!	!LO:TX:a:Bi:t=[segno]:problem:znak segno nad metrum	!	!
!LO:TX:a:Bi:t=[segno]:problem:znak segno nad metrum	!	!LO:TX:a:Bi:t=[segno]:problem:znak segno nad metrum	!	!	!	!	!	!	!
!	!	!	!	!LO:DY:b=2:Bi:t=%s.:rj	!	!	!	!	!
8EE'</L	.	2r	.	p	1r	.	1r	.	.
8BBB'</	.	.	.	.	.	.	.	.	.
8EE'</	.	.	.	.	.	.	.	.	.
8BBB'</J	.	.	.	.	.	.	.	.	.
=2	=2	=2	=2	=2	=2	=2	=2	=2	=2
8EE'</L	.	2r	.	.	.	.	.	.	.
8BBB'</	.	.	.	.	.	.	.	.	.
8EE'</	.	.	.	.	.	.	.	.	.
8BBB'</J	.	.	.	.	.	.	.	.	.
=3!|:	=3!|:	=3!|:	=3!|:	=3!|:	=3!|:	=3!|:	=3!|:	=3!|:	=3!|:
*>B	*	*>B	*	*	*>B	*	*>B	*	*
*	*	*	*	*	*	*	*8va	*	*
!	!	!	!	!LO:DY:b:rj	!	!	!	!	!LO:DY:b:Bi:t=%s.:rj
8E 8EE'</	.	8r	.	p	8e/L	.	8ee/L	.	p
8r	.	8e 8B 8G#'>\	.	.	8g#/J	.	8gg#/J	.	.
!	!	!	!	!	!LO:TUP:a:problem:klamra łukowa	!	!LO:TUP:a:problem:klamra łukowa	!	!
8BB 8BBB'</	.	8r	.	.	24b/LL	.	24bb/LL	.	.
.	.	.	.	.	24cc#/	.	24ccc#/	.	.
.	.	.	.	.	24b/JJ	.	24bb/JJ	.	.
8r	.	8e 8B 8G#'>\	.	.	16a#X/LL	.	16aa#X/LL	.	.
.	.	.	.	.	16cc#/JJ	.	16ccc#/JJ	.	.
=4	=4	=4	=4	=4	=4	=4	=4	=4	=4
8E 8EE/	.	8r	.	.	8b'>\L	.	8bb'>\L	.	.
8r	.	8e 8B 8G#\	.	.	8gg#'>\	.	8ggg#'>\	.	.
8BB 8BBB/	.	8r	.	.	8dd#'>\	.	8ddd#'>\	.	.
8r	.	8e 8B 8G#\	.	.	8ee'>\J	.	8eee'>\J	.	.
=5	=5	=5	=5	=5	=5	=5	=5	=5	=5
!	!	!	!	!	!LO:TUP:a:problem:klamra łukowa	!	!LO:TUP:a:problem:klamra łukowa	!	!
8D#X 8DD#X/	.	8r	.	.	24ff#\LL	.	24fff#\LL	.	.
.	.	.	.	.	24gg#\	.	24ggg#\	.	.
.	.	.	.	.	24ff#\JJ	.	24fff#\JJ	.	.
8r	.	8d#X 8B 8A\	.	.	16ee#X\LL	.	16eee#X\LL	.	.
.	.	.	.	.	16ff#\JJ	.	16fff#\JJ	.	.
8BB 8BBB/	.	8r	.	.	8gg#\L	.	8ggg#\L	.	.
8r	.	8d# 8B 8A\	.	.	8ff#\J	.	8fff#\J	.	.
=6	=6	=6	=6	=6	=6	=6	=6	=6	=6
.	.	.	.	.	8qff#/	.	8qfff#/	.	.
8F# 8FF#/	.	8r	.	.	8ee\L	.	8eee\L	.	.
8r	.	8d# 8B 8A\	.	.	8dd#\J	.	8ddd#\J	.	.
.	.	.	.	.	8qdd#/	.	8qddd#/	.	.
8BB 8BBB/	.	8r	.	.	8cc#\L	.	8ccc#\L	.	.
8r	.	8d# 8B 8A\	.	.	8b\J	.	8bb\J	.	.
=7	=7	=7	=7	=7	=7	=7	=7	=7	=7
8E 8EE/	.	8r	.	.	8e/L	.	8ee/L	.	.
8r	.	8e 8B 8G#\	.	<	8g#/J	.	8gg#/J	.	.
!	!	!	!	!	!LO:TUP:a:problem:klamra łukowa	!	!LO:TUP:a:problem:klamra łukowa	!	!
8BB 8BBB/	.	8r	.	.	24b/LL	.	24bb/LL	.	.
.	.	.	.	.	24cc#/	.	24ccc#/	.	.
.	.	.	.	.	24b/JJ	.	24bb/JJ	.	.
8r	.	8e 8B 8G#\	.	.	16a#X/LL	.	16aa#X/LL	.	.
.	.	.	.	.	16cc#/JJ	.	16ccc#/JJ	.	.
=8	=8	=8	=8	=8	=8	=8	=8	=8	=8
8E 8EE/	.	8r	.	.	8b'>\L	.	8bb'>\L	.	.
8r	.	8e 8B 8G#\	.	[	8gg#'>\	.	8ggg#'>\	.	<
8C# 8CC#/	.	8r	.	.	8dd#'>\	.	8ddd#'>\	.	.
8r	.	8e 8c# 8G#\	.	.	8ee'>\J	.	8eee'>\J	.	.
!LO:LB:g=original	!	!LO:LB:g=original	!	!	!	!	!	!	!
=9	=9	=9	=9	=9	=9	=9	=9	=9	=9
!	!	!	!	!	!LO:TUP:a:problem:klamra łukowa	!	!LO:TUP:a:problem:klamra łukowa	!	!
8F# 8FF#/	.	8r	.	<	24ff#\LL	.	24fff#\LL	.	.
.	.	.	.	.	24gg#\	.	24ggg#\	.	.
.	.	.	.	.	24ff#\JJ	.	24fff#\JJ	.	[
8r	.	8f# 8d# 8B\	.	.	16ee#X\LL	.	16eee#X\LL	.	.
.	.	.	.	.	16ff#\JJ	.	16fff#\JJ	.	.
8F# 8FF#/	.	8r	.	.	8gg#\L	.	8ggg#\L	.	.
8r	.	8f# 8d# 8B\	.	[[	8ff#\J	.	8fff#\J	.	.
!	!	!	!	!	!LO:LB:g=original	!	!LO:LB:g=original	!	!
=10	=10	=10	=10	=10	=10	=10	=10	=10	=10
!	!	!	!	!	!	!	!	!	!LO:DY:b:rj
.	.	.	.	.	8qff#/	.	8qfff#/	.	f
8FF# 8FFF#/	.	8r	.	.	8ee\L	.	8eee\L	.	.
8r	.	8f# 8e 8c# 8A#X\	.	f	16dd#\L	.	16ddd#\L	.	.
.	.	.	.	.	16cc#\J	.	16ccc#\J	.	.
8BBL 8BBB/	.	8f#L 8d# 8B\	.	.	8b\	.	8bb\	.	.
8BBJ 8BBB^^</	.	8f#J 8d# 8B 8F#^^>\	.	fz	8bbJ 8ff# 8dd#^^>\	.	8bbbJ 8fff# 8ddd#^^>\	.	.
*	*	*	*	*	*	*	*X8va	*	*
=11:|!|:	=11:|!|:	=11:|!|:	=11:|!|:	=11:|!|:	=11:|!|:	=11:|!|:	=11:|!|:	=11:|!|:	=11:|!|:
*>C	*	*>C	*	*	*>C	*	*>C	*	*
!	!	!	!	!	!	!	!LO:TX:a:Bi:t=loco.:rj	!	!
!	!	!	!	!	!LO:TUP:a:problem:klamra łukowa	!	!LO:TUP:a:problem:klamra łukowa	!	!
!	!	!	!	!	!	!	!	!	!LO:DY:b:rj
8D# 8DD#/	.	8r	.	ff	24aa\LL	.	24ccc#\LL	.	ff
.	.	.	.	.	24bb\	.	24ddd#\	.	.
.	.	.	.	.	24aa\JJ	.	24ccc#\JJ	.	.
8r	.	8d# 8B 8A\	.	.	16gg#\LL	.	16bb#X\LL	.	.
.	.	.	.	.	16aa\JJ	.	16ccc#\JJ	.	.
8BB 8BBB/	.	8r	.	.	8bb\L	.	8ddd#\L	.	.
8r	.	8d# 8B 8A\	.	.	8aa\J	.	8ccc#\J	.	.
=12	=12	=12	=12	=12	=12	=12	=12	=12	=12
.	.	.	.	.	.	.	8qqccc#/	.	.
8E 8EE/	.	8r	.	.	8gg#L 8ee\	.	8bb\L	.	.
8r	.	8e 8B 8G#\	.	.	8bJ 8g#\	.	8ee\J	.	.
8BB 8BBB/	.	8r	.	.	4ee 4b^^>\	.	4gg#^^>\	.	.
8r	.	8e 8B 8G#\	.	.	.	.	.	.	.
=13	=13	=13	=13	=13	=13	=13	=13	=13	=13
!	!	!	!	!	!	!	!LO:TUP:a:problem:klamra łukowa	!	!
8F# 8FF#/	.	8r	.	.	24a#X/LL	.	24ff#\LL	.	.
.	.	.	.	.	24b/	.	24gg#\	.	.
.	.	.	.	.	24a#/JJ	.	24ff#\JJ	.	.
8r	.	8f# 8e 8c# 8A#X\	.	.	16g##X/LL	.	16ee#X\LL	.	.
.	.	.	.	.	16a#/JJ	.	16ff#\JJ	.	.
8FF# 8FFF#/	.	8r	.	.	8b/L	.	8gg#\L	.	.
8r	.	8f# 8e 8c# 8A#\	.	.	16a#/L	.	16ff#\L	.	.
.	.	.	.	.	16cc#/JJ	.	16een\JJ	.	.
=14	=14	=14	=14	=14	=14	=14	=14	=14	=14
.	.	.	.	.	.	.	8qee/	.	.
8BB 8BBB/	.	8r	.	.	8bL 8f#/	.	8dd#/L	.	.
8r	.	8F# 8D#\	.	.	8d#J 8B/	.	8f#/J	.	.
8BB 8BBB/	.	8r	.	.	4f# 4d#^^>/	.	4b^^>/	.	.
8r	.	8B 8F# 8D#\	.	.	.	.	.	.	.
=15	=15	=15	=15	=15	=15	=15	=15	=15	=15
!	!	!	!	!	!LO:TUP:a:problem:klamra łukowa	!	!LO:TUP:a:problem:klamra łukowa	!	!
8D# 8DD#/	.	8r	.	.	24aa\LL	.	24ccc#\LL	.	.
.	.	.	.	.	24bb\	.	24ddd#\	.	.
.	.	.	.	.	24aa\JJ	.	24ccc#\JJ	.	.
8r	.	8d# 8B 8A\	.	.	16gg#\LL	.	16bb#X\LL	.	.
.	.	.	.	.	16aa\JJ	.	16ccc#\JJ	.	.
8BB 8BBB/	.	8r	.	.	8bb\L	.	8ddd#\L	.	.
8r	.	8d# 8B 8A\	.	.	8aa\J	.	8ccc#\J	.	.
=16	=16	=16	=16	=16	=16	=16	=16	=16	=16
!!LO:TX:a:Bi:t=Imo
*>C1	*	*>C1	*	*	*>C1	*	*>C1	*	*
.	.	.	.	.	.	.	8qccc#/	.	.
8E 8EE/	.	8r	.	.	8gg#L 8ee\	.	8bb\L	.	.
8r	.	8e 8B 8G#\	.	.	8bJ 8g#\	.	8ee\J	.	.
*	*	*clefG2	*	*	*	*	*	*	*
*	*	*	*	*	*	*	*8va	*	*
!	!	!	!	!	!	!	!	!	!LO:DY:b:rj
8C# 8CC#/	.	8r	.	f	4aa#X 4ee^^<\	.	4aaa#X 4eee^^>\	.	f
8r	.	8gn 8e 8A#X/	.	.	.	.	.	.	.
!LO:LB:g=original	!	!LO:LB:g=original	!	!	!	!	!	!	!
=17	=17	=17	=17	=17	=17	=17	=17	=17	=17
*	*	*	*	*	*^	*	*	*	*
*	*	*	*	*	*	*	*	*^	*	*
*	*	*	*	*	*Xtuplet	*	*	*	*	*	*
!	!	!	!	!LO:DY:b:Bi:t=%s.:rj	!	!	!	!	!	!	!LO:DY:b:Bi:t=%s.:rj
!	!	!	!	!	!	!	!	!LO:TUP:a:problem:klamra łukowa	!	!	!
8Dn 8DDn/	.	8r	.	pp	24bb/LL	8ddn\	.	24bbb/LL	8dddn\	.	pp
.	.	.	.	.	24cccn/	.	.	24ccccn/	.	.	.
.	.	.	.	.	24bb/JJ	.	.	24bbb/JJ	.	.	.
8r	.	8gn 8dn 8B/	.	.	16aa#X/LL	16cc#\LL	.	16aaa#X/LL	16ccc#\LL	.	.
.	.	.	.	.	16bb/JJ	16dd\JJ	.	16bbb/JJ	16ddd\JJ	.	.
8D 8DD/	.	8r	.	.	8ccc/L	8ee\L	.	8cccc/L	8eee\L	.	.
8r	.	8g 8d 8B/	.	.	8bb/J	8dd\J	.	8bbb/J	8ddd\J	.	.
*	*	*	*	*	*tuplet	*	*	*	*	*	*
!	!	!	!	!	!LO:LB:g=original	!	!	!LO:LB:g=original	!	!	!
*	*	*	*	*	*v	*v	*	*	*	*	*
*	*	*	*	*	*	*	*v	*v	*	*
=18	=18	=18	=18	=18	=18	=18	=18	=18	=18
.	.	.	.	.	.	.	8qbbb/	.	.
8Dn 8DDn/	.	8r	.	.	8aaL 8ccn\	.	8aaaL 8cccn\	.	.
8r	.	8f# 8dn 8cn 8A/	.	.	8ddnJ 8cc\	.	8dddnJ 8ccc\	.	.
4Gn 4GGn^^</	.	4gn 4d 4B^^>/	.	fz	4ggn 4b^^<\	.	4gggn 4bb^^>\	.	fz
*	*	*	*	*	*	*	*X8va	*	*
=19:|!	=19:|!	=19:|!	=19:|!	=19:|!	=19:|!	=19:|!	=19:|!	=19:|!	=19:|!
!!LO:TX:a:Bi:t=IIdo
*>C2	*	*>C2	*	*	*>C2	*	*>C2	*	*
*	*	*clefF4	*	*	*	*	*	*	*
!	!	!	!	!	!	!	!LO:TX:a:Bi:t=loco:rj	!	!
.	.	.	.	.	.	.	8qccc#/	.	.
8E 8EE/	.	8r	.	.	8gg#L 8ee\	.	8bb\L	.	.
8r	.	8e 8B 8G#\	.	ff	8bJ 8g#\	.	8ee\J	.	.
8C# 8CC#/	.	8r	.	.	4ee 4cc# 4g#^^<\	.	4ggg# 4ccc# 4gg#^^>\	.	.
8r	.	8e 8c# 8G#\	.	.	.	.	.	.	.
=20	=20	=20	=20	=20	=20	=20	=20	=20	=20
!	!	!	!	!	!LO:TUP:a:problem:klamra łukowa	!	!LO:TUP:a:problem:klamra łukowa	!	!
8AA 8AAA/	.	8r	.	.	24aa\LL	.	24fff#\LL	.	.
.	.	.	.	.	24bb\	.	24ggg#\	.	.
.	.	.	.	.	24aa\JJ	.	24fff#\JJ	.	.
8r	.	8f# 8c# 8A\	.	.	16gg#\LL	.	16eee#X\LL	.	.
.	.	.	.	.	16aa\JJ	.	16fff#\JJ	.	.
8FF# 8FFF#/	.	8r	.	.	8bb\L	.	8ggg#\L	.	.
8r	.	8f# 8c# 8A\	.	.	8aa\J	.	8fff#\J	.	.
=21	=21	=21	=21	=21	=21	=21	=21	=21	=21
8BB 8BBB/	.	8r	.	.	8ff#\L	.	8ddd#\L	.	.
8r	.	8f# 8d# 8B 8A\	.	.	8aaJ 8ff# 8dd# 8b\	.	8bbbJ 8bb\	.	.
8E 8EE/	.	8e 8B 8G#\	.	fz	8gg# 8ee\	.	8eee\	.	fz
!	!	!	!	!	!	!	!LO:TX:a:t=P:w źródle podwójna kreska taktowa jako kreska końcowa [partia Primo]:problem	!	!
!	!	!LO:TX:b:Bi:t=Fine	!	!	!	!	!LO:TX:b:Bi:t=Fine.	!	!
8r	.	8r	.	.	8r	.	8r	.	.
*kcancel	*	*kcancel	*	*	*kcancel	*	*kcancel	*	*
=22||	=22||	=22||	=22||	=22||	=22||	=22||	=22||	=22||	=22||
*>D	*	*>D	*	*	*>D	*	*>D	*	*
*k[f#c#g#]	*	*k[f#c#g#]	*	*	*k[f#c#g#]	*	*k[f#c#g#]	*	*
*	*	*clefG2	*	*	*	*	*	*	*
*	*	*	*	*	*	*	*8va	*	*
!	!	!LO:TX:a:Bi:t=Trio:rj	!	!	!	!	!LO:TX:a:Bi:t=Trio.:rj	!	!
!	!	!LO:TX:b:Bi:t=dolce.:rj	!	!	!	!	!LO:TX:b:Bi:t=dol.:rj	!	!
8A 8AA/	.	8r	.	.	8cc#'>\	.	8ccc#'>\	.	.
8r	.	8a 8e 8c#/	.	.	8r	.	8r	.	.
8A 8AA/	.	8r	.	.	8ee'>\L	.	8eee'>\L	.	.
8r	.	8g# 8e 8dn/	.	.	8b'>\J	.	8bb'>\J	.	.
=23	=23	=23	=23	=23	=23	=23	=23	=23	=23
8A 8AA/	.	8r	.	.	8cc#'>\L	.	8ccc#'>\L	.	.
8r	.	8e 8c#/	.	.	8a'>\J	.	8aa'>\J	.	.
8A 8AA/	.	8r	.	.	4aa^^>\	.	4aaa^^>\	.	.
8r	.	8a 8e 8c#/	.	.	.	.	.	.	.
=24	=24	=24	=24	=24	=24	=24	=24	=24	=24
8Dn 8DDn/	.	8r	.	.	8ff#'>\L	.	8fff#'>\L	.	.
8r	.	8a 8f# 8d/	.	.	16ff#'>\L	.	16fff#'>\L	.	.
.	.	.	.	.	16gg#'>\JJ	.	16ggg#'>\JJ	.	.
8D 8DD/	.	8r	.	.	8aa'>\L	.	8aaa'>\L	.	.
8r	.	8a 8f# 8d/	.	.	8bb'>\J	.	8bbb'>\J	.	.
!LO:LB:g=original	!	!LO:LB:g=original	!	!	!	!	!	!	!
=25	=25	=25	=25	=25	=25	=25	=25	=25	=25
.	.	.	.	.	.	.	8qqdddd/	.	.
8A 8AA/	.	8r	.	.	8ccc#'>\L	.	8cccc#'>\L	.	.
8r	.	8a 8e 8c#/	.	.	8ee'>\J	.	8eee'>\J	.	.
8A 8AA/	.	8r	.	.	4aa^^>\	.	4aaa^^>\	.	.
8r	.	8a 8e 8c#/	.	.	.	.	.	.	.
=26	=26	=26	=26	=26	=26	=26	=26	=26	=26
.	.	.	.	.	.	.	8qaaa/	.	.
8E 8EE/	.	8r	.	.	8gg#L 8b'>\	.	8ggg#L 8bb'>\	.	.
.	.	.	.	.	.	.	8qaaa/	.	.
8r	.	8g# 8e 8d 8B/	.	.	8gg#J 8b'>\	.	8ggg#J 8bb'>\	.	.
8E 8EE/	.	8r	.	.	4ff# 4dd^^>\	.	4fff# 4ddd^^>\	.	.
8r	.	8g# 8e 8d 8B/	.	.	.	.	.	.	.
!	!	!	!	!	!LO:LB:g=original	!	!LO:LB:g=original	!	!
=27	=27	=27	=27	=27	=27	=27	=27	=27	=27
.	.	.	.	.	.	.	8qggg#/	.	.
8A 8AA/	.	8r	.	.	8ff#L 8a'>\	.	8fff#L 8aa'>\	.	.
.	.	.	.	.	.	.	8qggg#/	.	.
8r	.	8e 8c#/	.	.	8ff#J 8a'>\	.	8fff#J 8aa'>\	.	.
8A 8AA/	.	8r	.	.	4ee 4cc#^^>\	.	4eee 4ccc#^^>\	.	.
8r	.	8a 8e 8c#/	.	.	.	.	.	.	.
=28	=28	=28	=28	=28	=28	=28	=28	=28	=28
*	*	*clefF4	*	*	*	*	*	*	*
.	.	.	.	.	.	.	8qeee/	.	.
8BB 8BBB/	.	8r	.	.	8dd#XL 8f#'>\	.	8ddd#XL 8ff#'>\	.	.
.	.	.	.	.	.	.	8qeee/	.	.
8r	.	8d#X 8B 8A 8F#\	.	.	8dd#J 8f#'>\	.	8ddd#J 8ff#'>\	.	.
8BB 8BBB/	.	8r	.	.	8aa^^>\L	1	8ccc#^^>/L	.	.
8r	.	8d# 8B 8A 8F#\	.	.	16gg#\L	.	16bb/L	.	.
.	.	.	.	.	16ff#\JJ	.	16aa/JJ	1	.
=29	=29	=29	=29	=29	=29	=29	=29	=29	=29
8E 8EE/	.	8r	.	.	(>16ee\LL	4	(>16gg#/LL	3.	.
.	.	.	.	.	16ff#\	3	16aa/	.	.
8r	.	8e 8B 8G#\	.	.	16ee\	1	16gg#/	.	.
.	.	.	.	.	16dd\JJ	2	16ff#/JJ	.	.
*	*	*clefG2	*	*	*	*	*	*	*
8E 8EE/	.	8r	.	.	16cc#\LL	.	16ee/LL	1	.
.	.	.	.	.	16dd\	.	16ff#/	3.	.
8r	.	8g# 8e 8dn 8B/	.	.	16cc#\	.	16ee/	.	.
.	.	.	.	.	16b\JJ)	.	16dd/JJ)	.	.
=30	=30	=30	=30	=30	=30	=30	=30	=30	=30
8A 8AA/	.	8r	.	.	8cc#\	.	8ccc#'>\	.	.
8r	.	8a 8e 8c#/	.	.	8r	.	8r	.	.
8A 8AA/	.	8r	.	.	8ee'>\L	.	8eee'>\L	.	.
8r	.	8g# 8e 8d/	.	.	8b'>\J	.	8bb'>\J	.	.
=31	=31	=31	=31	=31	=31	=31	=31	=31	=31
.	.	.	.	.	.	.	8qqddd/	.	.
8A 8AA/	.	8r	.	.	8cc#'>\L	.	8ccc#'>\L	.	.
8r	.	8e 8c#/	.	.	8a'>\J	.	8aa'>\J	.	.
8A 8AA/	.	8r	.	.	4aa^^>\	.	4aaa^^>\	.	.
8r	.	8a 8e 8c#/	.	<	.	.	.	.	.
=32	=32	=32	=32	=32	=32	=32	=32	=32	=32
8D 8DD/	.	8r	.	.	8ff#'>\L	.	8fff#'>\L	.	.
8r	.	8a 8f# 8d/	.	.	16ff#'>\L	.	16fff#'>\L	.	<
.	.	.	.	.	16gg#'>\JJ	.	16ggg#'>\JJ	.	.
8D 8DD/	.	8r	.	.	8aa'>\L	.	8aaa'>\L	.	.
8r	.	8a 8f# 8d/	.	[[	8bb'>\J	.	8bbb'>\J	.	.
!LO:LB:g=original	!	!LO:LB:g=original	!	!	!	!	!	!	!
=33	=33	=33	=33	=33	=33	=33	=33	=33	=33
8AAL 8AAA/	.	8aL 8e 8c#/	.	.	8ccc#'>\L	.	8cccc#'>\L	.	.
8AAJ 8AAA/	.	8aJ 8d#X 8cn/	.	.	8fff#\J	.	8ffff#'>\J	.	[
4AA 4AAA^^</	.	4a 4e 4c#X^^>/	.	.	4eee^^>\	.	4eeee^^>\	.	.
=34	=34	=34	=34	=34	=34	=34	=34	=34	=34
!	!	!	!	!	!	!	!	!	!LO:DY:b:rj
.	.	.	.	.	.	.	8qeeee/	.	f
!	!	!	!	!LO:DY:b:rj	!	!	!	!	!
8D 8DD/	.	8r	.	f	8dddL 8ff#\	.	8ddddL 8fff#'>\	.	.
8r	.	8b 8f# 8dn/	.	.	8ff#J 8dd\	.	8fff#J 8ddd'>\	.	.
4BB 4BBB^^</	.	4b 4g# 4fn 4d^^>/	.	.	4bb 4dd^^>\	.	4bbb 4ddd^^>\	.	.
=35	=35	=35	=35	=35	=35	=35	=35	=35	=35
.	.	.	.	.	.	.	8qqdddd/	.	.
8E 8EE/	.	8r	.	.	8ccc#L 8ee\	.	8cccc#L 8eee'>\	.	.
8r	.	8a 8e 8c#/	.	.	8eeJ 8cc#\	.	8eeeJ 8ccc#'>\	.	.
4Fn 4FFn^^</	.	4a 4d#X 4cn^^>/	.	.	4aa 4ccn^^>\	.	4aaa 4cccn^^>\	.	.
!	!	!	!	!	!LO:LB:g=original	!	!LO:LB:g=original	!	!
=36	=36	=36	=36	=36	=36	=36	=36	=36	=36
8E 8EE/	.	8r	.	.	16ee\LL	4	(>16ggg#\LL	2	.
.	.	.	.	.	16ff#\	.	16aaa\	1.	ff
8r	.	8g# 8e 8dn 8B/	.	.	16gg#\	.	16bbb\	.	.
.	.	.	.	.	16aa\JJ	.	16cccc#\JJ)	3.	.
8EE 8EEE/	.	8r	.	.	16gg#\LL	.	(>16eeee\LL	5.	.
.	.	.	.	.	16ff#\	.	16dddd\	.	.
8r	.	8g# 8e 8d 8B/	.	.	16ee\	1	16cccc#\	.	.
.	.	.	.	.	16dd\JJ	.	16bbb\JJ)	.	.
=37	=37	=37	=37	=37	=37	=37	=37	=37	=37
*	*^	*	*	*	*	*	*	*	*
4AA 4AAA/	.	.	4a 4e 4c#/	.	ff	4cc#\	.	4aaa\	.	.
32qqEE/LLL	.	1	.	.	.	.	.	.	.	.
32qqDD/	.	.	.	.	.	.	.	.	.	.
32qqCC#/	.	.	.	.	.	.	.	.	.	.
32qqBBB/JJJ	.	.	.	.	.	.	.	.	.	.
*	*	*	*clefF4	*	*	*	*	*	*	*
.	.	.	32qqE/LLL	5	.	.	.	.	.	.
.	.	.	32qqD/	.	.	.	.	.	.	.
.	.	.	32qqC#/	.	.	.	.	.	.	.
.	.	.	32qqBB/JJJ	.	.	.	.	.	.	.
!	!	!	!	!	!	!	!	!LO:TX:b:Bi:t=Dal Segno al Fine	!	!
8AAA^^</	.	.	8AA^^</	.	.	4r	.	4r	.	.
!	!	!	!LO:TX:b:Bi:t=Dal Segno al Fine	!	!	!	!	!	!	!
8r	.	.	8r	.	.	.	.	.	.	.
*	*	*	*	*	*	*	*	*X8va	*	*
*	*v	*v	*	*	*	*	*	*	*	*
==:|!	==:|!	==:|!	==:|!	==:|!	==:|!	==:|!	==:|!	==:|!	==:|!
*-	*-	*-	*-	*-	*-	*-	*-	*-	*-
!!title: @{OTL};
!!!RDF**kern: > = above
!!!RDF**kern: < = below
!!!RDF**kern: | = vertical stroke
!!!RDF**kern: N = linked
!!!RDF**kern: i = editorial accidental
!!!EED: Wojciech Jakubiak-Danek
!!!EST: 2021-06-07
!!!URL-scan: http://repozytorium.nifc.pl/skany/pl-wtm-nut--r2290
!!!ONB-nifc:
!!!AIN: 2 empty
!!!ENC: Berenika Jozajtis
!!!END: 2021-05-24
